icon-svg/ikea-blind-remote.svg

<svg xmlns="http://www.w3.org/2000/svg" fill="#44739e" viewBox="0 0 24 24"><path d="M10.137 16.2a1.109 1.109 0 0 0 0 2.189 1.109 1.109 0 0 0 0-2.189m9.445-9.035a3.551 3.551 0 0 0-3.272-3.623l-9.116-.719a3.544 3.544 0 0 0-2.619.869 3.545 3.545 0 0 0-1.51 2.885L3 17.305a3.551 3.551 0 0 0 3.164 3.551l8.924.98a3.532 3.532 0 0 0 2.381-.592 3.5 3.5 0 0 0 .347-.268 3.54 3.54 0 0 0 1.508-2.822zM9.9 6.7l.471.039v2.51L9.9 9.212Zm.236 12a1.425 1.425 0 0 1 0-2.828 1.425 1.425 0 0 1 0 2.828m7.592-15.827-9.117-.719a3.537 3.537 0 0 0-2.436.719A3.536 3.536 0 0 1 7.842 2.6l9.117.718a3.551 3.551 0 0 1 3.271 3.626l-.257 10.989a3.537 3.537 0 0 1-1.394 2.738 3.551 3.551 0 0 0 2.163-3.187L21 6.5a3.551 3.551 0 0 0-3.272-3.627"/></svg>

<?xml version="1.0" encoding="UTF-8"?>
<svg width="24px" fill="#44739e" height="24px" viewBox="0 0 24 24" version="1.1" xmlns="http://www.w3.org/2000/svg" xmlns:xlink="http://www.w3.org/1999/xlink">
            <path d="m 10.137,16.2 a 1.109,1.109 0 0 0 0,2.189 1.109,1.109 0 0 0 0,-2.189 z M 19.582,7.165 A 3.551,3.551 0 0 0 16.31,3.542 L 7.194,2.823 A 3.544,3.544 0 0 0 4.575,3.692 3.545,3.545 0 0 0 3.065,6.577 L 3,17.305 a 3.551,3.551 0 0 0 3.164,3.551 l 8.924,0.98 a 3.532,3.532 0 0 0 2.381,-0.592 3.449,3.449 0 0 0 0.347,-0.268 3.54,3.54 0 0 0 1.508,-2.822 z M 9.9,6.7 10.371,6.739 v 2.51 L 9.9,9.212 Z m 0.236,12 a 1.425,1.425 0 0 1 0,-2.828 1.425,1.425 0 0 1 0,2.828 z M 17.728,2.873 8.611,2.154 A 3.537,3.537 0 0 0 6.175,2.873 3.536,3.536 0 0 1 7.842,2.6 l 9.117,0.718 a 3.551,3.551 0 0 1 3.271,3.626 l -0.257,10.989 a 3.537,3.537 0 0 1 -1.394,2.738 3.551,3.551 0 0 0 2.163,-3.187 L 21,6.5 A 3.551,3.551 0 0 0 17.728,2.873 Z"/>

</svg>
